X:811
T:Pibroch of Domhnall Dubh, The 
C:Joe Buchanan's Scottish Tome - Page 316.0
I:316 0
Z:Carl Allison
R:Strathspey
L:1/8
M:6/8
K:A
"A" e>cc "D" f>ga | "A" e>cc c>BA | "A" e>cc f>ga | "A" e>cA "E7" {Bc}(B2 "A" A) |
"A" e>cc "D" f>ga | "A" e>cc c>BA | "Bm"{c}(B2 c) "E7" d>ef | "A" e>cA "E7" {Bc}(B2 "A" A) :|
"A" e>cc "D" f>dd | "A" e>cc c>BA | e>cc "D" f>dd | "A" e>cA  "E7" {Bc}(B2 "A" A) |
"A" e2 A "D" f2 A | "A" e2 a c>BA | "A" {f}e2 A "D" {f}f2 A | "A" e>cA "E7" {Bc}(B2 "A" A) :|
"A" e2 A "D" f2 A | "A" e2 a c>BA | "Bm" {c}(B2c) "E7"d>ef | "A" e>cA "E7" {Bc}(B2 "A" A) |
"A" a>ee "D" a>ff | "A" a>ee c>BA | "A" a>ee a>ff | "A" e>cA "E7" {Bc}(B2 "A" A) :|
"A" a>ee "D" aff | "A" a>ee c>BA | "A" a>ee "D" a>ff | "A" e>cA "E7"  {Bc}(B2 "A" A) |
"A" a>ee "D" a>ff | "A" a>ee c>BA | "Bm7" {c}(B2 "E7" c) d>ef | "A" e>cA "E7" {Bc}(B2 "A" A) |
"A" a>ee "D" aff | "A" a>ee c>BA | "A" a>ee "D" a>ff | "A" e>cA "E7"  {Bc}(B2 "A" A) |
"A" a>ee "D" a>ff | "A" a2 a c>BA | "Bm7" {c}(B2 "E7"c) d>ef | "A" e>cA "E7" {Bc}(B2 "A" A) |]

